X: 35659
T: Sailor's Bonnet, The
R: reel
M: 4/4
K: Dmajor
|:A2 FA df f2|dfef dB B2|A2 FA dfef|dBAF AD D2|
A2 FA dfef|dfef dB B2|A2 FA dfef|dBAF ADD2||
|:a3b afdf|afef dB B2|fb b2 bafa|b2 af fe e2|
bf f2 af f2|afef dB B2|A2 FA dfef|1 dBAF ADD2:|2 dBAF ADDB||

